www/images/search.svg

<svg fill="none" height="75" viewBox="0 0 75 75" width="75" xmlns="http://www.w3.org/2000/svg"><g clip-rule="evenodd" fill="#fff" fill-rule="evenodd"><path d="m61.5759 14.2227c-9.6303-9.63025-25.4157-9.63025-35.046 0-8.2939 8.2939-9.6302 21.1342-3.7458 30.7662l-14.1785 13.9116c-2.1408 2.4075-2.1408 6.1533 0 8.2939 2.4075 2.4075 6.1533 2.4075 8.5609 0l13.9116-13.9116c9.6302 5.8867 22.2055 4.5483 30.4976-3.7458 9.8991-9.6302 9.8991-25.4155 0-35.3145zm-5.0842 5.3508c6.689 6.9557 6.689 17.9241 0 24.613-6.9558 6.9557-17.9242 6.9557-24.88 0-6.6889-6.6889-6.6889-17.6573 0-24.613 6.9558-6.6889 17.9242-6.6889 24.88 0z"/><path d="m54.9249 31.0992c0 2.7077 4.3353 2.4377 4.0628-.2701-.2701-3.7928-1.8952-7.0431-4.3353-9.4809-2.4376-2.7077-5.9603-4.0628-9.4806-4.3353-2.7077-.2701-2.9802 3.7928-.27 4.0628 2.4376.2701 4.8753 1.3551 6.7727 3.2503 1.8951 1.8952 2.9801 4.0629 3.2502 6.7729z"/></g></svg>

<svg width="75" height="75" viewBox="0 0 75 75" fill="none" xmlns="http://www.w3.org/2000/svg">
<path fill-rule="evenodd" clip-rule="evenodd" d="M61.5759 14.2227C51.9456 4.59245 36.1602 4.59245 26.5299 14.2227C18.236 22.5166 16.8997 35.3569 22.7841 44.9889L8.6056 58.9005C6.4648 61.308 6.4648 65.0538 8.6056 67.1944C11.0131 69.6019 14.7589 69.6019 17.1665 67.1944L31.0781 53.2828C40.7083 59.1695 53.2836 57.8311 61.5757 49.537C71.4748 39.9068 71.4748 24.1215 61.5757 14.2225L61.5759 14.2227ZM56.4917 19.5735C63.1807 26.5292 63.1807 37.4976 56.4917 44.1865C49.5359 51.1422 38.5675 51.1422 31.6117 44.1865C24.9228 37.4976 24.9228 26.5292 31.6117 19.5735C38.5675 12.8846 49.5359 12.8846 56.4917 19.5735Z" fill="white"/>
<path fill-rule="evenodd" clip-rule="evenodd" d="M54.9249 31.0992C54.9249 33.8069 59.2602 33.5369 58.9877 30.8291C58.7176 27.0363 57.0925 23.786 54.6524 21.3482C52.2148 18.6405 48.6921 17.2854 45.1718 17.0129C42.4641 16.7428 42.1916 20.8057 44.9018 21.0757C47.3394 21.3458 49.7771 22.4308 51.6745 24.326C53.5696 26.2212 54.6546 28.3889 54.9247 31.0989L54.9249 31.0992Z" fill="white"/>
</svg>
